icons/svg/transport/bus_station2.svg

<?xml version="1.0" encoding="UTF-8" standalone="no"?>
<!-- Created with Inkscape (http://www.inkscape.org/) -->

<svg
   xmlns:dc="http://purl.org/dc/elements/1.1/"
   xmlns:cc="http://creativecommons.org/ns#"
   xmlns:rdf="http://www.w3.org/1999/02/22-rdf-syntax-ns#"
   xmlns:svg="http://www.w3.org/2000/svg"
   xmlns="http://www.w3.org/2000/svg"
   xmlns:sodipodi="http://sodipodi.sourceforge.net/DTD/sodipodi-0.dtd"
   xmlns:inkscape="http://www.inkscape.org/namespaces/inkscape"
   version="1.0"
   width="580"
   height="580"
   id="svg2"
   sodipodi:version="0.32"
   inkscape:version="0.48.4 r9939"
   sodipodi:docname="bus_station.svg"
   inkscape:output_extension="org.inkscape.output.svg.inkscape">
  <metadata
     id="metadata1976">
    <rdf:RDF>
      <cc:Work
         rdf:about="">
        <dc:format>image/svg+xml</dc:format>
        <dc:type
           rdf:resource="http://purl.org/dc/dcmitype/StillImage" />
        <cc:license
           rdf:resource="http://web.resource.org/cc/PublicDomain" />
        <dc:language>en</dc:language>
        <dc:title></dc:title>
      </cc:Work>
    </rdf:RDF>
  </metadata>
  <sodipodi:namedview
     inkscape:window-height="1003"
     inkscape:window-width="1366"
     inkscape:pageshadow="2"
     inkscape:pageopacity="0.0"
     guidetolerance="10.0"
     gridtolerance="10.0"
     objecttolerance="10.0"
     borderopacity="1.0"
     bordercolor="#666666"
     pagecolor="#ffffff"
     id="base"
     inkscape:zoom="0.65172414"
     inkscape:cx="242.43387"
     inkscape:cy="186.81904"
     inkscape:window-x="42"
     inkscape:window-y="0"
     inkscape:current-layer="svg2"
     showgrid="false"
     inkscape:window-maximized="0" />
  <defs
     id="defs4">
    <inkscape:perspective
       sodipodi:type="inkscape:persp3d"
       inkscape:vp_x="0 : 290 : 1"
       inkscape:vp_y="0 : 1000 : 0"
       inkscape:vp_z="580 : 290 : 1"
       inkscape:persp3d-origin="290 : 193.33333 : 1"
       id="perspective3653" />
    <marker
       viewBox="0 0 10 10"
       refY="5"
       refX="10"
       orient="auto"
       markerWidth="4"
       markerUnits="strokeWidth"
       markerHeight="3"
       id="ArrowStart">
      <path
         id="path2111"
         d="M 10 0 L 0 5 L 10 10 z" />
    </marker>
    <marker
       viewBox="0 0 10 10"
       refY="5"
       refX="0"
       orient="auto"
       markerWidth="4"
       markerUnits="strokeWidth"
       markerHeight="3"
       id="ArrowEnd">
      <path
         id="path2108"
         d="M 0 0 L 10 5 L 0 10 z" />
    </marker>
    <inkscape:perspective
       id="perspective2512"
       inkscape:persp3d-origin="177.51199 : 145.02 : 1"
       inkscape:vp_z="355.02399 : 217.53 : 1"
       inkscape:vp_y="0 : 1000 : 0"
       inkscape:vp_x="0 : 217.53 : 1"
       sodipodi:type="inkscape:persp3d" />
  </defs>
  <g
     id="g1327">
    <path
       d="M 66.275,1.768 C 24.94,1.768 1.704,23.139 1.704,66.804 L 1.704,516.927 C 1.704,557.771 22.6,579.156 63.896,579.156 L 515.92,579.156 C 557.227,579.156 578.149,558.842 578.149,516.927 L 578.149,66.804 C 578.149,24.203 557.227,1.768 514.628,1.768 C 514.624,1.768 66.133,1.625 66.275,1.768 z "
       style="fill:#111;stroke:#eee;stroke-width:3.40799999"
       id="path1329" />
  </g>
  <path
     style="fill:#ffffff;stroke:none"
     d="m 288.75675,35.076759 c 0.63349,0 1.29163,0.02423 1.93173,0.02927 0.64456,-0.0052 1.29392,-0.02927 1.93176,-0.02927 l -3.86349,0 z m 1.93173,0.02927 c -44.98032,0.356379 -105.92234,13.021464 -131.35887,23.620006 -25.801,10.750425 -43.00685,21.506028 -48.38151,48.381512 l -19.346743,149.00803 0,205.29215 33.337283,0 0,32.19579 c 0,39.2556 57.4256,39.25558 57.4256,0 l 0,-32.19579 106.07054,0 0.32197,0 110.25598,0 0,32.19579 c 0,39.2556 57.45488,39.25558 57.45488,0 l 0,-32.19579 33.33728,0 0,-205.29215 -19.34674,-149.00803 C 465.08349,80.232063 447.87765,69.47646 422.07664,58.726035 396.63763,48.126453 335.67009,35.460039 290.68848,35.106028 z m -81.89441,37.610547 79.96268,0 83.85543,0 c 16.12618,1.2e-5 16.12619,24.176114 0,24.176114 l -84.03105,0 -79.78706,0 c -16.12618,0 -16.12619,-24.176114 0,-24.176114 z m -43.49359,48.615651 123.28065,0 127.49537,0 c 17.03468,0 21.49329,8.64677 23.56149,21.77608 l 15.07348,108.06083 c 1.40423,10.35787 -1.61196,20.63456 -15.92229,20.63458 l -150.03243,0 -146.16895,0 c -14.31035,0 -17.29725,-10.27672 -15.89302,-20.63458 l 15.07348,-108.06083 c 2.06823,-13.12931 6.49752,-21.77608 23.53222,-21.77608 z m -11.61977,220.5998 c 15.21771,-10e-6 27.54205,12.3536 27.54205,27.57131 0,15.21771 -12.32434,27.54205 -27.54205,27.54205 -15.2177,10e-6 -27.5713,-12.32435 -27.5713,-27.54205 0,-15.2177 12.3536,-27.57131 27.5713,-27.57131 z m 274.04483,0 c 15.2177,0 27.54203,12.35361 27.54204,27.57131 0,15.2177 -12.32434,27.54206 -27.54204,27.54205 -15.21771,0 -27.57133,-12.32434 -27.57132,-27.54205 0,-15.21771 12.35362,-27.57132 27.57132,-27.57131 z"
     id="path2115"
     inkscape:connector-curvature="0" />
  <g
     id="g2117"
     transform="matrix(1.1975036,0,0,1.1975036,80.128205,34.575832)"
     style="fill:#000000">
    <g
       id="g2119"
       style="fill:#000000">
      <g
         id="g2121"
         style="fill:#000000">
        <path
           id="path2125"
           style="fill:#000000;stroke:none"
           d="" />
      </g>
      <g
         id="g2127"
         style="fill:#000000">
        <path
           id="path2131"
           style="fill:#000000;stroke:none"
           d="" />
      </g>
    </g>
  </g>
</svg>

<svg width="580" height="580" viewBox="0 0 580 580" fill="none" xmlns="http://www.w3.org/2000/svg">
<g clip-path="url(#clip0)">
<path d="M66.2751 1.76766C24.9401 1.76766 1.7041 23.1387 1.7041 66.8037V516.927C1.7041 557.771 22.6001 579.156 63.8961 579.156H515.92C557.227 579.156 578.149 558.842 578.149 516.927V66.8037C578.149 24.2027 557.227 1.76766 514.628 1.76766C514.624 1.76766 66.1331 1.62466 66.2751 1.76766Z" fill="#111111" stroke="#EEEEEE" stroke-width="3.408"/>
<path d="M288.757 35.0771C289.39 35.0771 290.049 35.1014 290.689 35.1064C291.333 35.1012 291.983 35.0771 292.62 35.0771H288.757ZM290.689 35.1064C245.708 35.4628 184.766 48.1279 159.33 58.7264C133.529 69.4769 116.323 80.2324 110.948 107.108L91.6016 256.116V461.408H124.939V493.604C124.939 532.86 182.364 532.859 182.364 493.604V461.408H288.435H288.757H399.013V493.604C399.013 532.86 456.468 532.859 456.468 493.604V461.408H489.805V256.116L470.458 107.108C465.084 80.2324 447.878 69.4769 422.077 58.7264C396.638 48.1268 335.67 35.4604 290.689 35.1064V35.1064ZM208.794 72.717H288.757H372.612C388.739 72.717 388.739 96.8931 372.612 96.8931H288.581H208.794C192.668 96.8931 192.668 72.717 208.794 72.717ZM165.301 121.333H288.581H416.077C433.111 121.333 437.57 129.979 439.638 143.109L454.712 251.17C456.116 261.527 453.1 271.804 438.789 271.804H288.757H142.588C128.278 271.804 125.291 261.527 126.695 251.17L141.768 143.109C143.837 129.979 148.266 121.333 165.301 121.333V121.333ZM153.681 341.932C168.899 341.932 181.223 354.286 181.223 369.504C181.223 384.721 168.899 397.046 153.681 397.046C138.463 397.046 126.11 384.721 126.11 369.504C126.11 354.286 138.463 341.932 153.681 341.932ZM427.726 341.932C442.943 341.932 455.268 354.286 455.268 369.504C455.268 384.721 442.943 397.046 427.726 397.046C412.508 397.046 400.154 384.721 400.154 369.504C400.154 354.286 412.508 341.932 427.726 341.932Z" fill="white"/>
</g>
<defs>
<clipPath id="clip0">
<path d="M0 0H580V580H0V0Z" fill="white"/>
</clipPath>
</defs>
</svg>
